!!!COM: Mozart, Wolfgang Amadeus
!!!CDT: 1756/01/27/-1791/12/05/
!!!CNT: German
!!!OTL: Piano Sonata No. 15 in C major
!!!ONB: Sonata No. 16 in NMA
!!!SCT1: K 545
!!!OMV: Mvmt. 1
!!!OMD: Allegro
!!!ODT: 1788///
**kern	**kern
*>[A,A,B,B]	*>[A,A,B,B]
*>norep[A,B]	*>norep[A,B]
*>A	*>A
*Ipiano	*Ipiano
*staff2	*staff1
*clefG2	*clefG2
*k[]	*k[]
*C:	*C:
*met(c)	*met(c)
*M4/4	*M4/4
*MM120	*MM120
=1-	=1-
8c/L	2cc\
8g/	.
8e/	.
8g/J	.
8c/L	4ee\
8g/	.
8e/	4gg\
8g/J	.
=2	=2
8d/L	(4.b\
8g/	.
8f/	.
8g/J	16cc\LL
.	16dd\JJ)
8c/L	4cc\
8g/	.
8e/	4r
8g/J	.
=3	=3
8c/L	2aa\
8a/	.
8f/	.
8a/J	.
8c/L	4gg\
8g/	.
8e/	4ccc\
8g/J	.
=4	=4
8B/L	4gg\
8g/	.
8d/	(8ff\L
8g/J	16ee\L
.	16ff\JJ)
8c/L	4ee\
8g/	.
8e/	4r
8g/J	.
=5	=5
4f/	8a\L
.	16b\L
.	16cc\JJ
4r	16dd\LL
.	16ee\
.	16ff\
.	16gg\JJ
4r	16aa\LL
.	16gg\
.	16ff\
.	16ee\JJ
*clefF4	*
4F\ 4c\	16dd\LL
.	16cc\
.	16b\
.	16a\JJ
=6	=6
4E\ 4c\	8g/L
.	16a/L
.	16b/JJ
4r	16cc\LL
.	16dd\
.	16ee\
.	16ff\JJ
4r	16gg\LL
.	16ff\
.	16ee\
.	16dd\JJ
4E\ 4c\	16cc/LL
.	16b/
.	16a/
.	16g/JJ
=7	=7
4D\ 4c\	8f/L
.	16g/L
.	16a/JJ
4r	16b\LL
.	16cc\
.	16dd\
.	16ee\JJ
4r	16ff\LL
.	16ee\
.	16dd\
.	16cc\JJ
4D\ 4B\	16b/LL
.	16a/
.	16g/
.	16f/JJ
=8	=8
4C\ 4c\	8e/L
.	16f/L
.	16g/JJ
4r	16a\LL
.	16b\
.	16cc\
.	16dd\JJ
4r	16ee\LL
.	16dd\
.	16cc\
.	16b\JJ
4C\ 4E\	16a/LL
.	16g/
.	16f/
.	16e/JJ
=9	=9
1F 1A	8d/L
.	16e/L
.	16f/JJ
.	16g/LL
.	16a/
.	16b/
.	16cc#/JJ
.	16dd\LL
.	16a\
.	16b\
.	16cc#\JJ
.	16dd\LL
.	16ee\
.	16ff\
.	16gg\JJ
=10	=10
4.F\	16aa\LL
.	16bb\
.	16cccn\
.	16bb\JJ
.	16aa\LL
.	16gg\
8G\	16ff\
.	16ee\JJ
4.A\	16ff\LL
.	16gg\
.	16aa\
.	16gg\JJ
.	16ff\LL
.	16ee\
8F#\	16dd\
.	16cc\JJ
=11	=11
16GG/LL	8b\L
16BB/	.
16D/	8gg\
16G/JJ	.
16GG/LL	8ee\
16C/	.
16E/	8cc\J
16G/JJ	.
16GG/LL	8dd\L
16BB/	.
16D/	8gg\
16G/JJ	.
16GG/LL	8ee\
16C/	.
16E/	8cc\J
16G/JJ	.
=12	=12
4GG/	4dd\
4G\	4b\ 4dd\ 4gg\
4GG/	4g/
4r	4r
=13	=13
16c#\LL	1r
16d\	.
16c#\	.
16d\JJ	.
16c#\LL	.
16d\	.
16c#\	.
16d\JJ	.
16cn\LL	.
16d\	.
16c\	.
16d\JJ	.
16c\LL	.
16d\	.
16c\	.
16d\JJ	.
=14	=14
16B\LL	(8ddd\L
16d\	.
16B\	8bb\J)
16d\JJ	.
16B\LL	(4.gg\
16d\	.
16B\	.
16d\JJ	.
16B\LL	.
16d\	.
16B\	16aa\LL
16d\JJ	16bb\JJ
16B\LL	8aa\L)
16d\	.
16B\	8gg'\J
16d\JJ	.
=15	=15
16c\LL	(8.gg\L
16d\	.
16B\	.
16d\JJ	16ff#\Jk)
16A\LL	4ff#\
16d\	.
16B\	.
16d\JJ	.
16c\LL	2r
16d\	.
16B\	.
16d\JJ	.
16c\LL	.
16d\	.
16A\	.
16d\JJ	.
=16	=16
16B\LL	(8ddd\L
16d\	.
16B\	8bb\J)
16d\JJ	.
16B\LL	(4.gg\
16d\	.
16B\	.
16d\JJ	.
16B\LL	.
16d\	.
16B\	16aa\LL
16d\JJ	16bb\JJ
16B\LL	8aa\L)
16d\	.
16B\	8gg'\J
16d\JJ	.
=17	=17
16c\LL	(8.gg\L
16d\	.
16B\	.
16d\JJ	16ff#\Jk)
16A\LL	4ff#\
16d\	.
16B\	.
16d\JJ	.
16c\LL	2r
16d\	.
16B\	.
16d\JJ	.
16c\LL	.
16d\	.
16A\	.
16d\JJ	.
*clefG2	*
=18	=18
16r	4ddd\
16B/LL	.
16d/	.
16g/JJ	.
4b\	16r
.	16ddd\LL
.	16bb\
.	16gg\JJ
16r	4ee\
16c/LL	.
16e/	.
16g/JJ	.
4cc\	16r
.	16ee\LL
.	16gg\
.	16ee\JJ
=19	=19
16r	4ccc\
16A/LL	.
16c/	.
16f#/JJ	.
4a/	16r
.	16ccc\LL
.	16aa\
.	16ff#\JJ
16r	4dd\
16B/LL	.
16d/	.
16f#/JJ	.
4b\	16r
.	16dd\LL
.	16ff#\
.	16dd\JJ
=20	=20
16r	4bb\
16G/LL	.
16B/	.
16e/JJ	.
4g/	16r
.	16bb\LL
.	16gg\
.	16ee\JJ
16r	4cc\
16A/LL	.
16c/	.
16e/JJ	.
4a/	16r
.	16cc\LL
.	16ee\
.	16cc\JJ
=21	=21
16r	4aa\
16F#/LL	.
16A/	.
16d/JJ	.
4f#/	16r
.	16aa\LL
.	16ff#\
.	16dd\JJ
16r	4b\
16G/LL	.
16B/	.
16d/JJ	.
4g/	16r
.	16gg\LL
.	16dd\
.	16b\JJ
=22	=22
8c/ 8e/L	2a/
8c/ 8e/	.
8c/ 8e/	.
8c/ 8e/J	.
.	bq/
8c/ 8e/L	4cc\
8c/ 8e/	.
.	dd#q/
8c/ 8e/	4ee\
8c/ 8e/J	.
=23	=23
.	(ggq/
8c/ 8e/L	4.aa\)
8c/ 8e/	.
8c/ 8e/	.
8c/ 8e/J	32bb\LLL
.	32aa\
.	32gg\
.	32aa\JJJ
8c/ 8e/L	(8ccc\L
8c/ 8e/	8aa\)
8c/ 8e/	(8ccc\
8c/ 8e/J	8aa\J)
=24	=24
16d/LL	(8bb\L
16b/	.
16g/	8ggn\J)
16b/JJ	.
16d/LL	2ddd\
16b/	.
16g/	.
16b/JJ	.
16d/LL	.
16b/	.
16g/	.
16b/JJ	.
16d/LL	16ccc\LL
16b/	16bb\
16g/	16aa\
16b/JJ	16gg\JJ
=25	=25
16d/LL	1aa
16cc/	.
16f#/	.
16cc/JJ	.
16d/LL	.
16cc/	.
16f#/	.
16cc/JJ	.
16d/LL	.
16cc/	.
16f#/	.
16cc/JJ	.
16d/LL	.
16cc/	.
16f#/	.
16cc/JJ	.
=26	=26
4g/ 4b/	4gg\
4r	16gg\LL
.	16dd\
.	16gg\
.	16bb\JJ
4r	16ddd\LL
.	16bb\
.	16gg\
.	16bb\JJ
4d/ 4a/ 4cc/	16ccc\LL
.	16aa\
.	16ff#\
.	16aa\JJ
=27	=27
4g/ 4b/	4gg\
4r	16g/LL
.	16d/
.	16g/
.	16b/JJ
4r	16dd/LL
.	16b/
.	16g/
.	16b/JJ
*clefF4	*
4D\ 4A\ 4c\	16cc/LL
.	16a/
.	16f#/
.	16a/JJ
=28	=28
4G\ 4B\	4g/
4GG/ 4G/	4dd\ 4bb\
4GG/ 4G/	4b\ 4gg\
4r	4r
=29:|!|:	=29:|!|:
*>B	*>B
4GG/ 4G/	4g/
4r	16gg\LL
.	16dd\
.	16gg\
.	16bb-\JJ
4r	16ddd\LL
.	16bb-\
.	16gg\
.	16bb-\JJ
*clefG2	*
4d/ 4a/ 4cc/	16ccc\LL
.	16aa\
.	16ff#\
.	16aa\JJ
=30	=30
4g/ 4b-/	4gg\
4r	16g/LL
.	16d/
.	16g/
.	16b-/JJ
4r	16dd/LL
.	16b-/
.	16g/
.	16b-/JJ
*clefF4	*
4D\ 4A\ 4c\	16cc/LL
.	16a/
.	16f#/
.	16a/JJ
=31	=31
16r	4g/
16GG/LL	.
16AA/	.
16BB-/JJ	.
16C\LL	4r
16D\	.
16E\	.
16F#\JJ	.
4G\	16r
.	16gg\LL
.	16bb-\
.	16aa\JJ
4r	16gg\LL
.	16ffn\
.	16ee\
.	16dd\JJ
=32	=32
16r	4cc#\
16AA/LL	.
16BBn/	.
16C#/JJ	.
16D\LL	4r
16E\	.
16F#\	.
16G#\JJ	.
4A\	16r
.	16ccc#\LL
.	16eee\
.	16ddd\JJ
4r	16ccc#\LL
.	(16bb-\
.	16aa\
.	16gg\JJ)
=33	=33
4DD/ 4D/	4ffn\
4r	16dd\LL
.	16a\
.	16dd\
.	16ff\JJ
4r	16aa\LL
.	16ff\
.	16dd\
.	16ff\JJ
*clefG2	*
4A/ 4e/ 4g/	16gg\LL
.	16ee\
.	16cc#\
.	16ee\JJ
=34	=34
4d/ 4f/	4dd\
4r	16d/LL
.	16A/
.	16d/
.	16f/JJ
4r	16a/LL
.	16f/
.	16d/
.	16f/JJ
*clefF4	*
4AA\ 4E\ 4G\	16g/LL
.	16e/
.	16c#/
.	16e/JJ
=35	=35
4D\ 4F\	16r
.	16d/LL
.	16e/
.	16f/JJ
4r	16g\LL
.	16a\
.	16b\
.	16cc#\JJ
16r	4dd\
16d\LL	.
16f\	.
16e\JJ	.
16d\LL	4r
16cn\	.
16B\	.
16A\JJ	.
=36	=36
4G#\	16r
.	16b\LL
.	16ccn\
.	16dd\JJ
4r	16ee\LL
.	16ff#\
.	16gg#\
.	16aa\JJ
16r	4bb\
16G#\LL	.
16B\	.
16A\JJ	.
16G#\LL	4r
16Fn\	.
16E\	.
16D\JJ	.
=37	=37
4C/	16r
.	16aa\LL
.	16eee\
.	16ddd\JJ
4r	16ccc\LL
.	16bb\
.	(16aa\
.	16ggn\JJ)
*clefG2	*
16r	4ffn\
16d/LL	.
16a/	.
16g/JJ	.
16f/LL	4r
16e/	.
16d/	.
16c/JJ	.
=38	=38
4B/	16r
.	16gg\LL
.	16ddd\
.	16ccc\JJ
4r	16bb\LL
.	(16aa\
.	16gg\
.	16ff\JJ)
16r	4ee\
16c/LL	.
16g/	.
16f/JJ	.
16e/LL	4r
16d/	.
16c/	.
16B/JJ	.
=39	=39
4A/	16r
.	16ff\LL
.	16ccc\
.	16bb\JJ
4r	16aa\LL
.	16gg\
.	16ff\
.	16ee\JJ
*clefF4	*
16r	4dd\
16B\LL	.
16f\	.
16e\JJ	.
16d\LL	4r
16c\	.
16B\	.
16A\JJ	.
=40	=40
4G#\	16r
.	16ee\LL
.	16bb\
.	16aa\JJ
4r	16gg#\LL
.	16ffn\
.	16ee\
.	16dd\JJ
16r	4cc\
16A\LL	.
16c\	.
16B\JJ	.
16A\LL	4r
16Gn\	.
16F\	.
16E\JJ	.
=41	=41
2D\	16r
.	16b-\LL
.	16dd\
.	16cc\JJ
.	16b-/LL
.	16a/
.	16g/
.	16f/JJ
2C\ 2G\ 2B-\	16e/LL
.	16f/
.	16g/
.	16a/JJ
.	16b-\LL
.	16cc\
.	16dd\
.	16ee\JJ
*clefG2	*
=42	=42
8f/L	2ff\
8cc/	.
8a/	.
8cc/J	.
8f/L	4aa\
8cc/	.
8a/	4ccc\
8cc/J	.
=43	=43
8g/L	(4.ee\
8cc/	.
8b-/	.
8cc/J	16ff\LL
.	16gg\JJ)
8f/L	4ff\
8cc/	.
8a/	4r
8cc/J	.
=44	=44
8f/L	2ddd\
8dd/	.
8b-/	.
8dd/J	.
8f/L	4ccc\
8cc/	.
8a/	4fff\
8cc/J	.
=45	=45
8e/L	4ccc\
8cc/	.
8g/	(8bb-\L
8cc/J	16aa\L
.	16bb-\JJ)
8f/L	4aa\
8cc/	.
8a/	4r
8cc/J	.
=46	=46
4b-\	8dd\L
.	16ee\L
.	16ff\JJ
4r	16gg\LL
.	16aa\
.	16bb-\
.	16ccc\JJ
4r	16ddd\LL
.	16ccc\
.	16bb-\
.	16aa\JJ
*clefF4	*
4B-\ 4f\	16gg\LL
.	16ff\
.	16ee\
.	16dd\JJ
=47	=47
4A\ 4f\	8cc\L
.	16dd\L
.	16ee\JJ
4r	16ff\LL
.	16gg\
.	16aa\
.	16bb-\JJ
4r	16ccc\LL
.	16bb-\
.	16aa\
.	16gg\JJ
4A\ 4f\	16ff\LL
.	16ee\
.	16dd\
.	16cc\JJ
=48	=48
4G\ 4f\	8b-\L
.	16cc\L
.	16dd\JJ
4r	16ee\LL
.	16ff\
.	16gg\
.	16aa\JJ
4r	16bb-\LL
.	16aa\
.	16gg\
.	16ff\JJ
4G\ 4e\	16ee\LL
.	16dd\
.	16cc\
.	16b-\JJ
=49	=49
4F\ 4f\	8a\L
.	16b-\L
.	16cc\JJ
4r	16dd\LL
.	16ee\
.	16ff\
.	16gg\JJ
2r	16aa\LL
.	16gg\
.	(16ff\
.	16ee\JJ)
.	16dd\LL
.	16cc\
.	16b-\
.	16a\JJ
=50	=50
8F\L	4aa\
16G\L	.
16A\JJ	.
16B-\LL	4r
16c\	.
16d\	.
16e\JJ	.
16f\LL	4r
16e\	.
16d\	.
16c\JJ	.
16B-\LL	4cc\ 4aa\
16A\	.
16G\	.
16F\JJ	.
=51	=51
8E\L	4cc\ 4gg\
16F\L	.
16G\JJ	.
16A\LL	4r
16Bn\	.
16c\	.
16d\JJ	.
16e\LL	4r
16d\	.
16c\	.
16B\JJ	.
16A\LL	4cc\ 4gg\
16G\	.
16F\	.
16E\JJ	.
=52	=52
8D\L	4cc\ 4ff\
16E\L	.
16F\JJ	.
16G\LL	4r
(16A\	.
16B\	.
16c\JJ)	.
16d\LL	4r
16c\	.
16B\	.
16A\JJ	.
16G\LL	4bn\ 4ff\
16F\	.
16E\	.
16D\JJ	.
=53	=53
8C\L	4cc\ 4ee\
16D\L	.
16E\JJ	.
16F\LL	4r
16G\	.
16A\	.
16B\JJ	.
16c\LL	4r
16B\	.
16A\	.
16G\JJ	.
16F\LL	4cc\ 4ee\
16E\	.
16D\	.
16C\JJ	.
=54	=54
1F 1A	16dd/LL
.	16d/
.	16e/
.	16f/JJ
.	16g/LL
.	16a/
.	16b/
.	16cc#/JJ
.	16dd\LL
.	16a\
.	16b\
.	16cc#\JJ
.	16dd\LL
.	16ee\
.	16ff\
.	16gg\JJ
=55	=55
4.F\	16aa\LL
.	16bb\
.	16cccn\
.	16bb\JJ
.	16aa\LL
.	16gg\
8G\	16ff\
.	16ee\JJ
4.A\	16ff\LL
.	16gg\
.	16aa\
.	16gg\JJ
.	16ff\LL
.	16ee\
8F#\	16dd\
.	16cc\JJ
=56	=56
16GG/LL	8b\L
16BB/	.
16D/	8gg\
16G/JJ	.
16GG/LL	8ee\
16C/	.
16E/	8cc\J
16G/JJ	.
16GG/LL	8dd\L
16BB/	.
16D/	8gg\
16G/JJ	.
16GG/LL	8ee\
16C/	.
16E/	8cc\J
16G/JJ	.
=57	=57
4GG/	4dd\
4G\	4b\ 4dd\ 4gg\
4GG/	4g/
4r	4r
*clefG2	*
=58	=58
16f#/LL	1r
16g/	.
16f#/	.
16g/JJ	.
16f#/LL	.
16g/	.
16f#/	.
16g/JJ	.
16fn/LL	.
16g/	.
16f/	.
16g/JJ	.
16f/LL	.
16g/	.
16f/	.
16g/JJ	.
=59	=59
16e/LL	(8gg\L
16g/	.
16e/	8ee\J)
16g/JJ	.
16e/LL	(4.cc\
16g/	.
16e/	.
16g/JJ	.
16e/LL	.
16g/	.
16e/	16dd\LL
16g/JJ	16ee\JJ
16e/LL	8dd\L)
16g/	.
16e/	8cc'\J
16g/JJ	.
=60	=60
16f/LL	(8.cc\L
16g/	.
16e/	.
16g/JJ	16b\Jk)
16d/LL	4b\
16g/	.
16e/	.
16g/JJ	.
16f/LL	2r
16g/	.
16e/	.
16g/JJ	.
16f/LL	.
16g/	.
16d/	.
16g/JJ	.
=61	=61
16e/LL	(8gg\L
16g/	.
16e/	8ee\J)
16g/JJ	.
16e/LL	(4.cc\
16g/	.
16e/	.
16g/JJ	.
16e/LL	.
16g/	.
16e/	16dd\LL
16g/JJ	16ee\JJ
16e/LL	8dd\L)
16g/	.
16e/	8cc'\J
16g/JJ	.
=62	=62
16f/LL	(8.cc\L
16g/	.
16e/	.
16g/JJ	16b\Jk)
16d/LL	4b\
16g/	.
16e/	.
16g/JJ	.
16f/LL	2r
16g/	.
16e/	.
16g/JJ	.
16f/LL	.
16g/	.
16d/	.
16g/JJ	.
*clefF4	*
=63	=63
16r	4gg\
16E\LL	.
16G\	.
16c\JJ	.
4e\	16r
.	16gg\LL
.	16ee\
.	16cc\JJ
16r	4a/
16F\LL	.
16A\	.
16c\JJ	.
4f\	16r
.	16a\LL
.	16cc\
.	16a\JJ
=64	=64
16r	4ff\
16D\LL	.
16F\	.
16B\JJ	.
4d\	16r
.	16ff\LL
.	16dd\
.	16b\JJ
16r	4g/
16E\LL	.
16G\	.
16B\JJ	.
4e\	16r
.	16gg\LL
.	16bb\
.	16gg\JJ
*clefG2	*
=65	=65
16r	4eee\
16c/LL	.
16e/	.
16a/JJ	.
4cc\	16r
.	16eee\LL
.	16ccc\
.	16aa\JJ
16r	4ff\
16d/LL	.
16f/	.
16a/JJ	.
4dd\	16r
.	16ff\LL
.	16aa\
.	16ff\JJ
=66	=66
16r	4ddd\
16B/LL	.
16d/	.
16g/JJ	.
4b\	16r
.	16ddd\LL
.	16bb\
.	16gg\JJ
16r	4ee\
16c/LL	.
16e/	.
16g/JJ	.
4cc\	16r
.	16ccc\LL
.	16gg\
.	16ee\JJ
=67	=67
8r	2dd\
8f/ 8a/L	.
8f/ 8a/	.
8f/ 8a/J	.
.	(cc#q/
8f/ 8a/L	4dd\)
8f/ 8a/	.
.	(cc#q/
8f/ 8a/	4dd\)
8f/ 8a/J	.
*clefF4	*
=68	=68
8r	2aa\
8F#\ 8c\ 8e-\L	.
8F#\ 8c\ 8e-\	.
8F#\ 8c\ 8e-\J	.
.	gg#q/
8F#\ 8c\ 8e-\L	4aa\
8F#\ 8c\ 8e-\	.
.	gg#q/
8F#\ 8c\ 8e-\	4aa\
8F#\ 8c\ 8e-\J	.
=69	=69
16G\LL	8ggn\L
16en\	.
16c\	16aa\L
16e\JJ	16bb\JJ
16G\LL	16ccc\LL
16e\	16ddd\
16c\	16eee\
16e\JJ	16ddd\JJ
16G\LL	16ccc\LL
16e\	16bb\
16c\	16aa\
16e\JJ	16gg\JJ
16G\LL	16ff\LL
16e\	16ee\
16c\	16dd\
16e\JJ	16cc\JJ
=70	=70
16G\LL	1dd
16f\	.
16B\	.
16f\JJ	.
16G\LL	.
16f\	.
16B\	.
16f\JJ	.
16G\LL	.
16f\	.
16B\	.
16f\JJ	.
16G\LL	.
16f\	.
16B\	.
16f\JJ	.
=71	=71
4c\ 4e\	4cc\
4r	16cc\LL
.	16g\
.	16cc\
.	16ee\JJ
4r	16gg\LL
.	16ee\
.	16cc\
.	16ee\JJ
4G\ 4d\ 4f\	16ff\LL
.	16dd\
.	16b\
.	16dd\JJ
=72	=72
4c\ 4e\	4cc\
4r	16c/LL
.	16G/
.	16c/
.	16e/JJ
4r	16g/LL
.	16e/
.	16c/
.	16e/JJ
4GG/ 4D/ 4F/	16f/LL
.	16d/
.	16B/
.	16d/JJ
=73	=73
4C\ 4E\	4c/
4C\ 4c\	4ee\ 4gg\ 4ccc\
4CC/ 4C/	4cc\
4r	4r
==:|!	==:|!
*-	*-
!!!SMS: Alte Mozart-Ausgabe, Band 20, Breitkopf &amp; H&auml;rtel 1877-1883.
!!!ONB: Stich und Druck von Breitkopf &amp; H&auml;rtel in Leipzig
!!!ONB: Ausgegeben 1878
!!!ENC: Craig Stuart Sapp
!!!END: 2004/10/26/
!!!title: @{OTL}, @{SCT1}, @{OMV}
!!!hum2abc: --no-tempo -s 0.65 --spacing 1.9 -p "%gracespace  0 6.0 12.0"
